X:1503
T:Contradiction, The
R:reel
N:"collected from J. O'Neill"
B:"O'Neill's Dance Music of Ireland, 1503"
T: an frio.trai.dea.cd.
Z:transcribed by John B. Walsh, walsh@math.ubc.ca 8/23/96
M:C|
L:1/8
K:A
e "Segno"|c2 d3cBA BEED|CEAc dfed|c2 3dcBA GABc|defg afed|
c2 3dcBA BEED CEAc dfed|c2 3dcBA GABg|afec A/A/A A||
g|aA A/A/A aAcA|GBEB EBEg|aA A/A/A aAcA|GBEB cAAg|
aA A/A/A aAcA|GBEB EBEg|agfe fedc|dEFG A2||
e2|aec'e aec'e|bed'e bed'e|c'ee'ec'ee'e|dcBA EAA2|
aec'e aec'e|bed'e bed'e|c'ee'ec'ee'e|dcBA EAA2||
cefe cefe|dcBA BEE2|cefe cefe|fagb afed|
cefe cefe|3fga ec BEE2|ecea fdfa|gbeg aefd "Segno"||
